packages/icons/raw/imported/SoftwareClear.svg

<svg width="32" height="32" viewBox="0 0 32 32" fill="none" xmlns="http://www.w3.org/2000/svg">
<path d="M20.225 15.2227L25.4653 8.03803C25.8188 7.59601 25.9766 7.03894 25.904 6.48938C25.8315 5.93982 25.5345 5.44278 25.0785 5.10761C24.6225 4.77244 24.0447 4.62657 23.4724 4.70213C22.9 4.77769 22.3799 5.06848 22.0265 5.5105L16.7701 12.6973L5.69425 15.2227C5.57655 17.7267 7.59663 21.0519 11.0445 23.5861C14.4924 26.1203 17.8859 27.8054 20.3774 27.0461L20.225 15.2227Z" stroke="black" stroke-miterlimit="10"/>
<path d="M20.3712 15.0314C20.0834 15.3824 19.0774 15.1083 18.1296 14.4117C17.1819 13.7152 16.6446 12.8549 16.9234 12.4972" stroke="black" stroke-miterlimit="10"/>
<path d="M11.6636 17.2001L7.32636 19.5729" stroke="black" stroke-miterlimit="10" stroke-linecap="round"/>
<path d="M13.2615 20.5998L11.2251 23.2632" stroke="black" stroke-miterlimit="10" stroke-linecap="round"/>
<path d="M17.3462 21.6417L15.6976 26.0694" stroke="black" stroke-miterlimit="10" stroke-linecap="round"/>
</svg>

<svg width="32" height="32" fill="none" xmlns="http://www.w3.org/2000/svg"><path d="m20.225 15.223 5.24-7.185c.354-.442.512-1 .439-1.549a2.049 2.049 0 0 0-.826-1.381 2.223 2.223 0 0 0-1.606-.406 2.223 2.223 0 0 0-1.446.809l-5.256 7.186-11.076 2.526c-.117 2.504 1.903 5.829 5.35 8.363 3.448 2.534 6.842 4.22 9.333 3.46l-.152-11.823Z" stroke="#000" stroke-miterlimit="10"/><path d="M20.371 15.031c-.288.351-1.294.077-2.241-.62-.948-.696-1.485-1.556-1.207-1.914" stroke="#000" stroke-miterlimit="10"/><path d="m11.664 17.2-4.338 2.373M13.261 20.6l-2.036 2.663M17.346 21.642l-1.648 4.427" stroke="#000" stroke-miterlimit="10" stroke-linecap="round"/></svg>
